brandFactory_export/1.Light/Bombilla idea_1Light.svg

<?xml version="1.0" encoding="UTF-8"?>
<svg width="24px" height="24px" viewBox="0 0 24 24" version="1.1" xmlns="http://www.w3.org/2000/svg" xmlns:xlink="http://www.w3.org/1999/xlink">
    <title>1.Light/Bombilla idea_1Light</title>
    <g id="Symbols" stroke="none" stroke-width="1" fill="none" fill-rule="evenodd">
        <g id="1.Light/Bombilla-idea_1Light" fill="#5CB615" fill-rule="nonzero">
            <path d="M15.3697479,15.5394958 C16.9327731,14.5848739 17.7260504,12.9243697 17.7260504,10.5983193 C17.7260504,9.25042017 17.3193277,4.84369748 12.0554622,4.72941176 C11.8605042,4.72268908 11.6487395,4.72268908 11.4537815,4.72268908 L11.4201681,4.72268908 C9.74285714,4.73277311 5.84369748,5.3210084 5.84369748,10.5613445 C5.84369748,12.9210084 6.63697479,14.5983193 8.19663866,15.5428571 L8.67731092,15.8352941 L8.67731092,18.205042 C8.67731092,18.4369748 8.71428571,18.7462185 8.89243697,18.9008403 C9.01680672,19.0117647 9.38991597,19.1260504 10.5495798,19.1260504 L13.0033613,19.1260504 C13.9579832,19.1260504 14.5193277,19.0554622 14.6773109,18.9109244 C14.8554622,18.7529412 14.892437,18.4403361 14.892437,18.205042 L14.892437,15.8319328 L15.3697479,15.5394958 Z M12.0789916,3.73781513 C13.4369748,3.76806723 18.7344538,4.30252101 18.7344538,10.5983193 C18.7344538,13.7647059 17.4,15.4689076 15.9008403,16.3831933 L15.9008403,18.205042 C15.9008403,18.8336134 15.7226891,19.3243697 15.3596639,19.6470588 C15.010084,19.9596639 14.4756303,20.1210084 13.0067227,20.1210084 L10.5529412,20.1210084 C9.11764706,20.1210084 8.57983193,19.9596639 8.2302521,19.6470588 C7.85714286,19.3243697 7.67226891,18.8336134 7.67226891,18.205042 L7.67226891,16.389916 C6.17310924,15.4857143 4.83865546,13.7647059 4.83865546,10.5613445 C4.83865546,4.21176471 10.0252101,3.73781513 11.4201681,3.73109244 C11.6352941,3.73109244 11.8705882,3.73109244 12.0789916,3.73781513 Z M11.7563025,6.06386555 C12.5260504,6.08067227 16.394958,6.38655462 16.6235294,10.6890756 C16.6369748,10.9647059 16.4252101,11.1966387 16.1462185,11.210084 L16.1193277,11.210084 C15.8537815,11.210084 15.6319328,11.005042 15.6151261,10.7394958 C15.4369748,7.39831933 12.5932773,7.07563025 11.7260504,7.05546218 C11.5915966,7.05210084 11.4403361,7.05210084 11.302521,7.05210084 C11.0235294,7.05210084 10.7983193,6.8302521 10.7983193,6.55462185 C10.7983193,6.2789916 11.0235294,6.05714286 11.302521,6.05714286 C11.4504202,6.0605042 11.6117647,6.0605042 11.7563025,6.06386555 Z M15.1378151,20.8067227 C15.4168067,20.8067227 15.6420168,21.0285714 15.6420168,21.3042017 C15.6420168,21.5798319 15.4168067,21.8016807 15.1378151,21.8016807 L8.63361345,21.8016807 C8.35462185,21.8016807 8.12941176,21.5798319 8.12941176,21.3042017 C8.12941176,21.0285714 8.35462185,20.8067227 8.63361345,20.8067227 L15.1378151,20.8067227 Z M14.2605042,22.6319328 C14.5394958,22.6319328 14.7647059,22.8537815 14.7647059,23.1294118 C14.7647059,23.405042 14.5394958,23.6268908 14.2605042,23.6268908 L9.31260504,23.6268908 C9.03361345,23.6268908 8.80840336,23.405042 8.80840336,23.1294118 C8.80840336,22.8537815 9.03361345,22.6319328 9.31260504,22.6319328 L14.2605042,22.6319328 Z M11.7394958,2.75294118 C11.4605042,2.75294118 11.2352941,2.53109244 11.2352941,2.25546218 L11.2352941,0.497478992 C11.2352941,0.221848739 11.4605042,0 11.7394958,0 C12.0184874,0 12.2436975,0.221848739 12.2436975,0.497478992 L12.2436975,2.25546218 C12.2436975,2.53109244 12.0151261,2.75294118 11.7394958,2.75294118 L11.7394958,2.75294118 Z M18.9193277,2.68235294 C19.1142857,2.48739496 19.4336134,2.48739496 19.6319328,2.68235294 C19.8268908,2.87731092 19.8268908,3.18991597 19.6319328,3.38487395 L18.3680672,4.62857143 C18.2705882,4.72605042 18.1428571,4.77310924 18.0117647,4.77310924 C17.8840336,4.77310924 17.7529412,4.72605042 17.6554622,4.62857143 C17.4605042,4.43361345 17.4605042,4.1210084 17.6554622,3.92605042 L18.9193277,2.68235294 Z M5.01344538,4.84705882 L3.74957983,3.60336134 C3.55462185,3.40840336 3.55462185,3.09579832 3.74957983,2.90084034 C3.94453782,2.70588235 4.26386555,2.70588235 4.46218487,2.90084034 L5.72605042,4.14453782 C5.9210084,4.3394958 5.9210084,4.65210084 5.72605042,4.84705882 C5.62857143,4.94453782 5.49747899,4.99159664 5.3697479,4.99159664 C5.24201681,4.99159664 5.11092437,4.94453782 5.01344538,4.84705882 Z M3.29915966,9.75462185 C3.57815126,9.75462185 3.80336134,9.97647059 3.80336134,10.2521008 C3.80336134,10.5277311 3.57815126,10.7495798 3.29915966,10.7495798 L1.51428571,10.7495798 C1.23529412,10.7495798 1.01008403,10.5277311 1.01008403,10.2521008 C1.01008403,9.97647059 1.23529412,9.75462185 1.51428571,9.75462185 L3.29915966,9.75462185 L3.29915966,9.75462185 Z M22.1596639,9.6605042 C22.4386555,9.6605042 22.6638655,9.88235294 22.6638655,10.1579832 C22.6638655,10.4336134 22.4386555,10.6554622 22.1596639,10.6554622 L20.3747899,10.6554622 C20.0957983,10.6554622 19.8705882,10.4336134 19.8705882,10.1579832 C19.8705882,9.88235294 20.0957983,9.6605042 20.3747899,9.6605042 L22.1596639,9.6605042 Z" id="Bombilla-idea_1Light"></path>
        </g>
    </g>
</svg>

<svg width="24" height="24" viewBox="0 0 24 24" xmlns="http://www.w3.org/2000/svg"><path d="M15.37 15.54c1.563-.955 2.356-2.616 2.356-4.942 0-1.348-.407-5.754-5.67-5.869-.195-.006-.407-.006-.602-.006h-.034c-1.677.01-5.576.598-5.576 5.838 0 2.36.793 4.037 2.353 4.982l.48.292v2.37c0 .232.037.541.215.696.125.11.498.225 1.658.225h2.453c.955 0 1.516-.07 1.674-.215.178-.158.215-.47.215-.706v-2.373l.478-.293zM12.079 3.737c1.358.03 6.655.565 6.655 6.86 0 3.167-1.334 4.87-2.833 5.785v1.822c0 .629-.178 1.12-.541 1.442-.35.313-.884.474-2.353.474h-2.454c-1.435 0-1.973-.161-2.323-.474-.373-.323-.558-.813-.558-1.442V16.39c-1.499-.904-2.833-2.625-2.833-5.829 0-6.35 5.186-6.823 6.581-6.83.215 0 .45 0 .659.007zm-.323 2.326c.77.017 4.639.323 4.868 4.625a.497.497 0 01-.478.521h-.027a.504.504 0 01-.504-.47c-.178-3.342-3.022-3.664-3.889-3.685-.134-.003-.286-.003-.423-.003a.5.5 0 01-.505-.497.5.5 0 01.505-.498c.147.004.309.004.453.007zm3.382 14.743a.5.5 0 01.504.497.5.5 0 01-.504.498H8.634a.5.5 0 01-.505-.498.5.5 0 01.505-.497h6.504zm-.877 1.825a.5.5 0 01.504.497.5.5 0 01-.504.498H9.313a.5.5 0 01-.505-.498.5.5 0 01.505-.497h4.948zm-2.522-19.88a.5.5 0 01-.504-.497V.497A.5.5 0 0111.74 0a.5.5 0 01.505.497v1.758a.502.502 0 01-.505.498zm7.18-.07a.507.507 0 01.713 0 .495.495 0 010 .703l-1.264 1.244a.498.498 0 01-.356.144.495.495 0 01-.356-.847l1.263-1.244zM5.013 4.847L3.75 3.603a.495.495 0 010-.702.507.507 0 01.712 0l1.264 1.244a.495.495 0 01-.356.847.504.504 0 01-.357-.145zM3.3 9.755a.5.5 0 01.504.497.5.5 0 01-.504.498H1.514a.5.5 0 01-.504-.498.5.5 0 01.504-.497H3.3zm18.86-.094a.5.5 0 01.505.497.5.5 0 01-.504.497h-1.785a.5.5 0 01-.504-.497.5.5 0 01.504-.497h1.785z" fill="#5CB615" fill-rule="nonzero"/></svg>
